src/assets/icons/biz-money,fancy,money.svg

<svg width="48" height="48" viewBox="0 0 48 48" fill="none" xmlns="http://www.w3.org/2000/svg">
<g clip-path="url(#clip0_32:133)">
<rect opacity="0.2" x="5" y="5" width="38" height="38" rx="4" fill="black"/>
<path opacity="0.2" fill-rule="evenodd" clip-rule="evenodd" d="M6.17157 -36.5364C5 -35.3649 5 -33.4792 5 -29.708V6.10352e-05H43V-29.708C43 -33.4792 43 -35.3649 41.8284 -36.5364C40.6569 -37.708 38.7712 -37.708 35 -37.708H13C9.22876 -37.708 7.34315 -37.708 6.17157 -36.5364ZM43 9.00006H5V29C5 32.7712 5 34.6569 6.17157 35.8284C7.34315 37 9.22876 37 13 37H35C38.7712 37 40.6569 37 41.8284 35.8284C43 34.6569 43 32.7712 43 29V9.00006Z" fill="black"/>
<path opacity="0.2" fill-rule="evenodd" clip-rule="evenodd" d="M6.17157 -36.5364C5 -35.3649 5 -33.4792 5 -29.708V6.10352e-05H43V-29.708C43 -33.4792 43 -35.3649 41.8284 -36.5364C40.6569 -37.708 38.7712 -37.708 35 -37.708H13C9.22876 -37.708 7.34315 -37.708 6.17157 -36.5364ZM43 9.00006H5V29C5 32.7712 5 34.6569 6.17157 35.8284C7.34315 37 9.22876 37 13 37H35C38.7712 37 40.6569 37 41.8284 35.8284C43 34.6569 43 32.7712 43 29V9.00006Z" fill="black"/>
<path opacity="0.6" fill-rule="evenodd" clip-rule="evenodd" d="M5.03496 20C5 20.8419 5 21.8302 5 23C5 26.7712 5 28.6569 6.17157 29.8284C7.34315 31 9.22876 31 13 31H35C38.7712 31 40.6569 31 41.8284 29.8284C43 28.6569 43 26.7712 43 23C43 21.8302 43 20.8419 42.965 20C42.8873 21.8723 42.6366 23.0203 41.8284 23.8284C40.6569 25 38.7712 25 35 25H13C9.22876 25 7.34315 25 6.17157 23.8284C5.3634 23.0203 5.11272 21.8723 5.03496 20Z" fill="black"/>
<path fill-rule="evenodd" clip-rule="evenodd" d="M5 13C5 9.22876 5 7.34315 6.17157 6.17157C7.34315 5 9.22876 5 13 5H35C38.7712 5 40.6569 5 41.8284 6.17157C43 7.34315 43 9.22876 43 13V17C43 20.7712 43 22.6569 41.8284 23.8284C40.6569 25 38.7712 25 35 25H13C9.22876 25 7.34315 25 6.17157 23.8284C5 22.6569 5 20.7712 5 17V13ZM30 15C30 18.3137 27.3137 21 24 21C20.6863 21 18 18.3137 18 15C18 11.6863 20.6863 9 24 9C27.3137 9 30 11.6863 30 15ZM11 17C12.1046 17 13 16.1046 13 15C13 13.8954 12.1046 13 11 13C9.89543 13 9 13.8954 9 15C9 16.1046 9.89543 17 11 17ZM37 17C38.1046 17 39 16.1046 39 15C39 13.8954 38.1046 13 37 13C35.8954 13 35 13.8954 35 15C35 16.1046 35.8954 17 37 17Z" fill="black"/>
</g>
<defs>
<clipPath id="clip0_32:133">
<rect width="48" height="48" fill="white"/>
</clipPath>
</defs>
</svg>

<svg xmlns="http://www.w3.org/2000/svg" width="48" height="48" fill="none" viewBox="0 0 48 48">
  <g clip-path="url(#clip0_32:133)">
    <rect width="38" height="38" x="5" y="5" fill="#000" opacity=".2" rx="4"/>
    <path fill="#000" fill-rule="evenodd" d="M6.172-36.536C5-35.365 5-33.48 5-29.708V0h38v-29.708c0-3.771 0-5.657-1.172-6.828-1.171-1.172-3.057-1.172-6.828-1.172H13c-3.771 0-5.657 0-6.828 1.172zM43 9H5v20c0 3.771 0 5.657 1.172 6.828C7.343 37 9.229 37 13 37h22c3.771 0 5.657 0 6.828-1.172C43 34.657 43 32.771 43 29V9z" clip-rule="evenodd" opacity=".2"/>
    <path fill="#000" fill-rule="evenodd" d="M6.172-36.536C5-35.365 5-33.48 5-29.708V0h38v-29.708c0-3.771 0-5.657-1.172-6.828-1.171-1.172-3.057-1.172-6.828-1.172H13c-3.771 0-5.657 0-6.828 1.172zM43 9H5v20c0 3.771 0 5.657 1.172 6.828C7.343 37 9.229 37 13 37h22c3.771 0 5.657 0 6.828-1.172C43 34.657 43 32.771 43 29V9z" clip-rule="evenodd" opacity=".2"/>
    <path fill="#000" fill-rule="evenodd" d="M5.035 20C5 20.842 5 21.83 5 23c0 3.771 0 5.657 1.172 6.828C7.343 31 9.229 31 13 31h22c3.771 0 5.657 0 6.828-1.172C43 28.657 43 26.771 43 23c0-1.17 0-2.158-.035-3-.078 1.872-.328 3.02-1.137 3.828C40.657 25 38.771 25 35 25H13c-3.771 0-5.657 0-6.828-1.172-.809-.808-1.06-1.956-1.137-3.828z" clip-rule="evenodd" opacity=".6"/>
    <path fill="#000" fill-rule="evenodd" d="M5 13c0-3.771 0-5.657 1.172-6.828C7.343 5 9.229 5 13 5h22c3.771 0 5.657 0 6.828 1.172C43 7.343 43 9.229 43 13v4c0 3.771 0 5.657-1.172 6.828C40.657 25 38.771 25 35 25H13c-3.771 0-5.657 0-6.828-1.172C5 22.657 5 20.771 5 17v-4zm25 2a6 6 0 11-12 0 6 6 0 0112 0zm-19 2a2 2 0 100-4 2 2 0 000 4zm26 0a2 2 0 100-4 2 2 0 000 4z" clip-rule="evenodd"/>
  </g>
  <defs>
    <clipPath id="clip0_32:133">
      <path fill="#fff" d="M0 0h48v48H0z"/>
    </clipPath>
  </defs>
</svg>
